src/img/insta-icon.svg

<svg width="20" height="20" viewBox="0 0 20 20" fill="none" xmlns="http://www.w3.org/2000/svg">
<path d="M18 0H2C1.46957 0 0.960859 0.210714 0.585786 0.585786C0.210714 0.960859 0 1.46957 0 2L0 18C0 18.5304 0.210714 19.0391 0.585786 19.4142C0.960859 19.7893 1.46957 20 2 20H18C18.5304 20 19.0391 19.7893 19.4142 19.4142C19.7893 19.0391 20 18.5304 20 18V2C20 1.46957 19.7893 0.960859 19.4142 0.585786C19.0391 0.210714 18.5304 0 18 0V0ZM10 6C10.7911 6 11.5645 6.2346 12.2223 6.67412C12.8801 7.11365 13.3928 7.73836 13.6955 8.46927C13.9983 9.20017 14.0775 10.0044 13.9231 10.7804C13.7688 11.5563 13.3878 12.269 12.8284 12.8284C12.269 13.3878 11.5563 13.7688 10.7804 13.9231C10.0044 14.0775 9.20017 13.9983 8.46927 13.6955C7.73836 13.3928 7.11365 12.8801 6.67412 12.2223C6.2346 11.5645 6 10.7911 6 10C6 8.93913 6.42143 7.92172 7.17157 7.17157C7.92172 6.42143 8.93913 6 10 6ZM2.5 18C2.43825 18.0041 2.37631 17.9959 2.31772 17.976C2.25914 17.956 2.20507 17.9247 2.15861 17.8839C2.11215 17.843 2.07423 17.7933 2.04701 17.7377C2.01979 17.6822 2.00382 17.6218 2 17.56V9H4.1C4.01687 9.32646 3.98316 9.66354 4 10C4 11.5913 4.63214 13.1174 5.75736 14.2426C6.88258 15.3679 8.4087 16 10 16C11.5913 16 13.1174 15.3679 14.2426 14.2426C15.3679 13.1174 16 11.5913 16 10C16.0168 9.66354 15.9831 9.32646 15.9 9H18V17.5C18.0041 17.5617 17.9959 17.6237 17.976 17.6823C17.956 17.7409 17.9247 17.7949 17.8839 17.8414C17.843 17.8878 17.7933 17.9258 17.7377 17.953C17.6822 17.9802 17.6218 17.9962 17.56 18H2.5ZM18 4.5C18.0041 4.56175 17.9959 4.62369 17.976 4.68228C17.956 4.74086 17.9247 4.79493 17.8839 4.84139C17.843 4.88785 17.7933 4.92577 17.7377 4.95299C17.6822 4.98021 17.6218 4.99618 17.56 5H15.5C15.4383 5.00407 15.3763 4.9959 15.3177 4.97597C15.2591 4.95604 15.2051 4.92473 15.1586 4.88385C15.1122 4.84297 15.0742 4.79332 15.047 4.73774C15.0198 4.68217 15.0038 4.62176 15 4.56V2.5C14.9959 2.43825 15.0041 2.37631 15.024 2.31772C15.044 2.25914 15.0753 2.20507 15.1161 2.15861C15.157 2.11215 15.2067 2.07423 15.2623 2.04701C15.3178 2.01979 15.3782 2.00382 15.44 2H17.5C17.5617 1.99593 17.6237 2.0041 17.6823 2.02403C17.7409 2.04396 17.7949 2.07527 17.8414 2.11615C17.8878 2.15703 17.9258 2.20668 17.953 2.26226C17.9802 2.31783 17.9962 2.37824 18 2.44V4.5Z" fill="white"/>
</svg>

<svg xmlns="http://www.w3.org/2000/svg" width="20" height="20" fill="none"><path fill="#fff" d="M18 0H2a2 2 0 00-2 2v16a2 2 0 002 2h16a2 2 0 002-2V2a2 2 0 00-2-2zm-8 6a4 4 0 110 8 4 4 0 010-8zM2.5 18a.5.5 0 01-.5-.4V9h2.1L4 10a6 6 0 1011.9-1H18v8.5a.5.5 0 01-.4.5H2.5zM18 4.5a.5.5 0 01-.4.5h-2.1a.5.5 0 01-.5-.4V2.5a.5.5 0 01.4-.5h2.1a.5.5 0 01.5.4v2.1z"/></svg>
